!!!OTL: Qingfengnian
!!!ARE: Asia, China,ÿHunan Xiangzhong
!! I, 504
!!!SCT: C2180
!!!YEM: Copyright 1995, estate of Helmut Schaffrath.
**kern
*ICvox
*Ivox
*M4/4
*k[f#c#]
*D:
{[2b
8.b]
16ff#
8dd
8dd
=1
8dd
8b
8dd
8b
8dd
8b
8dd
8b
=2
8b
8dd
16ff#
16ee
16dd
16ee
24dd
24ee
24dd
4b}
{16dd
16dd
=3
8ee
8dd
8dd
8dd
8ee
8dd
8dd
8dd
=4
8ee
8dd
16b
16a
[8a
4.a]}
{16b
16a
=5
8e
8a
8b
8a
8f#
8a
8dd
8b
=6
8ee
8dd
8b
2b}
{16ee
16dd
=7
8b
8dd
8ee
8dd
8b
8dd
16ee
16dd
8ee}
=8
{8ee
16dd
16ee
16b
16a
[8a
4.a]
8r}
==
!!!AGN: Shange
!!!ONB: ESAC (Essen Associative Code) Database: SENGANSU
!!!AMT: simple quadruple
!!!AIN: vox
!!!EED: Helmut Schaffrath
!!!EEV: 1.0
*-
